Newaita-dark/apps/48/shutter.svg

<svg height="48pt" viewBox="0 0 48 48" width="48pt" xmlns="http://www.w3.org/2000/svg" xmlns:xlink="http://www.w3.org/1999/xlink"><linearGradient id="a"><stop offset="0" stop-opacity=".313726"/><stop offset=".222222" stop-opacity=".27451"/><stop offset="1" stop-opacity="0"/></linearGradient><radialGradient id="b" cx="450.908936" cy="189.579361" gradientTransform="matrix(.00000026 -.117199 -.210958 -.00000015 65.296304 95.392994)" gradientUnits="userSpaceOnUse" r="21.166656" xlink:href="#a"/><radialGradient id="c" cx="450.908936" cy="189.579361" gradientTransform="matrix(-.00000026 .117199 .210958 .00000015 -17.666755 -11.291223)" gradientUnits="userSpaceOnUse" r="21.166656" xlink:href="#a"/><radialGradient id="d" cx="450.908936" cy="189.579361" gradientTransform="matrix(-.00000026 -.117199 .210958 -.00000015 -17.666755 95.392994)" gradientUnits="userSpaceOnUse" r="21.166656" xlink:href="#a"/><radialGradient id="e" cx="450.908936" cy="189.579361" gradientTransform="matrix(.00000026 .117199 -.210958 .00000015 65.296302 -11.291224)" gradientUnits="userSpaceOnUse" r="21.166656" xlink:href="#a"/><linearGradient id="f" gradientTransform="matrix(.0200401 0 0 .093759 18.698079 20.158175)" gradientUnits="userSpaceOnUse" x1="255.323059" x2="255.323044" y1="233.5" y2="254.666656"><stop offset="0" stop-opacity=".27451"/><stop offset="1" stop-opacity="0"/></linearGradient><linearGradient id="g" gradientUnits="userSpaceOnUse" x1="23.814816" x2="23.814816" y1="4.34417306195" y2="42.05096580616"><stop offset="0" stop-color="#64b5f6"/><stop offset="1" stop-color="#42a5f5"/></linearGradient><linearGradient id="h" gradientUnits="userSpaceOnUse" x1="23.814816" x2="23.814816" y1="4.34417306195" y2="42.05096580616"><stop offset="0" stop-color="#616161"/><stop offset="1" stop-color="#424242"/></linearGradient><path d="m25.800781 42.050781h3.96875v-1.984375h-3.96875zm0 0" fill="url(#b)"/><path d="m21.832031 42.050781h-3.972656v1.984375h3.972656zm0 0" fill="url(#c)"/><path d="m21.832031 42.050781h-3.972656v-1.984375h3.972656zm0 0" fill="url(#d)"/><path d="m25.800781 42.050781h3.96875v1.984375h-3.96875zm0 0" fill="url(#e)"/><path d="m21.832031 41.554688h3.96875v2.480468h-3.96875zm0 0" fill="url(#f)"/><path d="m23.769531 4.539062c-.144531 0-.285156 0-.425781.003907-2.085938.054687-4.160156.476562-6.136719 1.230469l12.851563 12.847656v-12.984375c-2.03125-.726563-4.160156-1.101563-6.289063-1.097657zm7.695313 1.664063v18.171875l9.183594-9.183594c-1.890626-3.984375-5.152344-7.175781-9.183594-8.988281zm-15.664063.152344c-3.988281 1.894531-7.191406 5.15625-9.003906 9.191406h18.199219zm25.441407 10.234375-12.851563 12.851562h12.988281c1.480469-4.15625 1.433594-8.71875-.136718-12.851562zm-34.988282.363281c-1.484375 4.160156-1.433594 8.71875.136719 12.851563l12.847656-12.851563zm16.382813 13.894531 9.183593 9.183594c3.988282-1.890625 7.175782-5.152344 8.988282-9.183594zm0 0" fill="url(#g)"/><path d="m16.164062 22.019531-9.183593 9.183594c1.890625 3.988281 5.152343 7.175781 9.183593 8.988281zm1.40625 5.753907v12.988281c4.160157 1.480469 8.71875 1.433593 12.851563-.136719zm0 0" fill="url(#h)"/><path d="m23.769531 4.539062c-.144531 0-.285156 0-.425781.003907-2.085938.054687-4.160156.476562-6.136719 1.230469l.402344.402343c1.855469-.660156 3.789063-1.03125 5.734375-1.082031.140625-.003906.28125-.003906.425781-.003906 2.128907-.003906 4.257813.371094 6.289063 1.09375v-.546875c-2.03125-.726563-4.160156-1.101563-6.289063-1.097657zm7.695313 1.664063v.550781c3.90625 1.753906 7.089844 4.804688 9.003906 8.621094l.179688-.183594c-1.890626-3.984375-5.152344-7.175781-9.183594-8.988281zm-15.664063.152344c-3.988281 1.894531-7.191406 5.15625-9.003906 9.191406h.257813c1.847656-3.78125 4.941406-6.835937 8.746093-8.640625l8.644531 8.640625h.550782zm25.441407 10.234375-12.851563 12.851562h.550781l12.300782-12.300781c.773437 2.042969 1.179687 4.1875 1.210937 6.339844.035156-2.335938-.371094-4.675781-1.210937-6.890625zm-34.988282.363281c-.75 2.105469-1.109375 4.308594-1.078125 6.511719.03125-2.019532.390625-4.03125 1.078125-5.960938h12.4375l.546875-.550781zm9.910156 5.066406-9.183593 9.183594c.058593.121094.121093.246094.183593.367187l9-9.003906zm1.40625 5.753907v.550781l12.449219 12.445312c.136719-.046875.269531-.09375.402344-.144531zm5.066407 3.074218.546875.550782h17.367187c.089844-.183594.175781-.367188.257813-.550782zm0 0" fill="#fff" fill-opacity=".392157"/><path d="m17.613281 5.621094c-.136719.050781-.269531.097656-.40625.152344l12.851563 12.847656v-.554688zm22.851563 9.199218-9 9v.554688l9.183594-9.183594c-.058594-.125-.121094-.25-.183594-.371094zm-33.40625.171876c-.089844.183593-.175782.367187-.261719.554687h18.199219l-.558594-.554687zm11.625 1.960937-12.292969 12.296875c-.777344-2.042969-1.179687-4.1875-1.214844-6.339844-.035156 2.335938.371094 4.679688 1.214844 6.894532l12.847656-12.851563zm23.769531 5.972656c-.03125 2.019531-.390625 4.03125-1.074219 5.957031h-12.433594l-.554687.558594h12.988281c.75-2.105468 1.105469-4.3125 1.074219-6.515625zm-19.816406 7.921875 9.183593 9.183594c3.988282-1.890625 7.175782-5.152344 8.988282-9.183594h-.261719c-1.847656 3.773438-4.925781 6.824219-8.726563 8.625l-8.628906-8.625zm-15.472657.171875-.183593.183594c1.890625 3.988281 5.152343 7.175781 9.183593 8.988281v-.554687c-3.90625-1.757813-7.085937-4.804688-9-8.617188zm10.40625 9.183594v.558594c4.160157 1.480469 8.71875 1.433593 12.851563-.136719l-.40625-.410156c-4.023437 1.421875-8.421875 1.421875-12.445313-.011719zm0 0" fill-opacity=".235294"/><path d="m23.769531 4.398438c-.144531 0-.289062 0-.429687.003906-2.101563.054687-4.191406.480468-6.183594 1.238281-.042969.015625-.078125.054687-.085938.101563-.011718.046874.003907.09375.039063.128906l12.847656 12.851562c.042969.039063.101563.050782.15625.03125.050781-.023437.085938-.074218.085938-.132812v-12.984375c0-.0625-.039063-.113281-.09375-.132813-2.046875-.730468-4.191407-1.109375-6.335938-1.105468zm0 .28125c2.078125-.003907 4.160157.359374 6.148438 1.058593v12.542969l-12.453125-12.453125c1.898437-.695313 3.882812-1.09375 5.882812-1.144531.140625-.003906.28125-.003906.421875-.003906zm7.699219 1.382812c-.039062 0-.074219.015625-.101562.039062-.027344.027344-.042969.0625-.042969.101563v18.175781c0 .054688.035156.105469.085937.128906.050782.019532.113282.007813.152344-.03125l9.183594-9.183593c.042968-.042969.054687-.105469.027344-.160157-1.902344-4.019531-5.1875-7.234374-9.25-9.058593-.019532-.007813-.039063-.011719-.054688-.011719zm-15.667969.152344c-.019531 0-.042969.003906-.058593.015625-4.019532 1.90625-7.25 5.191406-9.070313 9.261719-.019531.042968-.015625.09375.007813.132812.027343.039062.070312.0625.117187.0625h18.199219c.054687 0 .105468-.03125.128906-.085938.019531-.050781.007812-.113281-.03125-.152343l-9.191406-9.191407c-.027344-.027343-.066406-.042968-.101563-.042968zm15.804688.210937c3.878906 1.800781 7.019531 4.890625 8.871093 8.738281l-8.871093 8.875zm-15.832031.101563 8.882812 8.878906h-17.636719c1.800781-3.882812 4.902344-7.027344 8.753907-8.878906zm25.46875 9.921875c-.039063 0-.074219.015625-.101563.042969l-12.851563 12.847656c-.039062.042968-.050781.101562-.027343.152344.019531.054687.070312.089843.128906.089843h12.988281c.058594 0 .109375-.039062.132813-.09375 1.492187-4.1875 1.441406-8.785156-.140625-12.949219-.019532-.054687-.070313-.089843-.128906-.089843zm-34.988282.363281c-.0625 0-.113281.039062-.132812.09375-1.496094 4.191406-1.445313 8.785156.136718 12.949219.015626.042969.054688.078125.101563.085937.046875.011719.09375-.003906.128906-.035156l12.851563-12.851562c.039062-.039063.050781-.101563.03125-.152344-.023438-.054688-.074219-.089844-.132813-.089844zm34.929688.035156c1.46875 4.015625 1.503906 8.421875.09375 12.453125h-12.546875zm-34.828125.246094h12.546875l-12.453125 12.453125c-1.472657-4.015625-1.507813-8.421875-.09375-12.453125zm9.804687 4.785156c-.035156 0-.070312.015625-.09375.039063l-9.183594 9.183593c-.042968.042969-.054687.105469-.027343.160157 1.90625 4.019531 5.1875 7.234375 9.253906 9.058593.042969.019532.09375.015626.132813-.011718.039062-.023438.0625-.070313.0625-.117188v-18.171875c0-.039062-.015626-.074219-.042969-.101562-.027344-.027344-.0625-.042969-.101563-.039063zm-.136718.480469v17.609375c-3.878907-1.796875-7.019532-4.890625-8.871094-8.738281zm1.546874 5.273437c-.078124 0-.140624.0625-.140624.140626v12.988281c0 .058593.039062.109375.09375.132812 4.191406 1.492188 8.785156 1.441407 12.949218-.140625.042969-.015625.078125-.054687.085938-.101562.011718-.046875-.003906-.09375-.035156-.128906l-12.851563-12.851563c-.027344-.027344-.0625-.039063-.101563-.039063zm.140626.480469 12.453124 12.453125c-4.015624 1.46875-8.421874 1.503906-12.453124.09375zm4.925781 2.59375c-.058594 0-.109375.035157-.132813.085938-.019531.050781-.007812.113281.03125.152343l9.183594 9.183594c.042969.042969.105469.054688.160156.027344 4.019532-1.902344 7.234375-5.1875 9.058594-9.25.019531-.046875.015625-.097656-.011719-.136719-.023437-.039062-.070312-.0625-.117187-.0625zm.339843.28125h17.609376c-1.796876 3.878907-4.890626 7.019531-8.738282 8.871094zm0 0" fill="#212121"/></svg>

<?xml version="1.0" encoding="UTF-8"?>
<svg xmlns="http://www.w3.org/2000/svg" xmlns:xlink="http://www.w3.org/1999/xlink" width="48pt" height="48pt" viewBox="0 0 48 48" version="1.1">
<defs>
<radialGradient id="radial0" gradientUnits="userSpaceOnUse" cx="450.908936" cy="189.579361" fx="450.908936" fy="189.579361" r="21.166656" gradientTransform="matrix(0.000000261256,-0.117199,-0.210958,-0.000000152308,65.296304,95.392994)">
<stop offset="0" style="stop-color:rgb(0%,0%,0%);stop-opacity:0.313726;"/>
<stop offset="0.222222" style="stop-color:rgb(0%,0%,0%);stop-opacity:0.27451;"/>
<stop offset="1" style="stop-color:rgb(0%,0%,0%);stop-opacity:0;"/>
</radialGradient>
<radialGradient id="radial1" gradientUnits="userSpaceOnUse" cx="450.908936" cy="189.579361" fx="450.908936" fy="189.579361" r="21.166656" gradientTransform="matrix(-0.000000261256,0.117199,0.210958,0.000000152308,-17.666755,-11.291223)">
<stop offset="0" style="stop-color:rgb(0%,0%,0%);stop-opacity:0.313726;"/>
<stop offset="0.222222" style="stop-color:rgb(0%,0%,0%);stop-opacity:0.27451;"/>
<stop offset="1" style="stop-color:rgb(0%,0%,0%);stop-opacity:0;"/>
</radialGradient>
<radialGradient id="radial2" gradientUnits="userSpaceOnUse" cx="450.908936" cy="189.579361" fx="450.908936" fy="189.579361" r="21.166656" gradientTransform="matrix(-0.000000261256,-0.117199,0.210958,-0.000000152308,-17.666755,95.392994)">
<stop offset="0" style="stop-color:rgb(0%,0%,0%);stop-opacity:0.313726;"/>
<stop offset="0.222222" style="stop-color:rgb(0%,0%,0%);stop-opacity:0.27451;"/>
<stop offset="1" style="stop-color:rgb(0%,0%,0%);stop-opacity:0;"/>
</radialGradient>
<radialGradient id="radial3" gradientUnits="userSpaceOnUse" cx="450.908936" cy="189.579361" fx="450.908936" fy="189.579361" r="21.166656" gradientTransform="matrix(0.000000261256,0.117199,-0.210958,0.000000152308,65.296302,-11.291224)">
<stop offset="0" style="stop-color:rgb(0%,0%,0%);stop-opacity:0.313726;"/>
<stop offset="0.222222" style="stop-color:rgb(0%,0%,0%);stop-opacity:0.27451;"/>
<stop offset="1" style="stop-color:rgb(0%,0%,0%);stop-opacity:0;"/>
</radialGradient>
<linearGradient id="linear0" gradientUnits="userSpaceOnUse" x1="255.323059" y1="233.5" x2="255.323044" y2="254.666656" gradientTransform="matrix(0.0200401,0,0,0.093759,18.698079,20.158175)">
<stop offset="0" style="stop-color:rgb(0%,0%,0%);stop-opacity:0.27451;"/>
<stop offset="1" style="stop-color:rgb(0%,0%,0%);stop-opacity:0;"/>
</linearGradient>
<linearGradient id="linear1" gradientUnits="userSpaceOnUse" x1="960" y1="175.118134" x2="960" y2="1695.118164" gradientTransform="matrix(0.0248071,0,0,0.0248071,0,0.00000000000000282)">
<stop offset="0" style="stop-color:rgb(39.215687%,70.980394%,96.470588%);stop-opacity:1;"/>
<stop offset="1" style="stop-color:rgb(25.882354%,64.705884%,96.078432%);stop-opacity:1;"/>
</linearGradient>
<linearGradient id="linear2" gradientUnits="userSpaceOnUse" x1="960" y1="175.118134" x2="960" y2="1695.118164" gradientTransform="matrix(0.0248071,0,0,0.0248071,0,0.00000000000000282)">
<stop offset="0" style="stop-color:rgb(38.039216%,38.039216%,38.039216%);stop-opacity:1;"/>
<stop offset="1" style="stop-color:rgb(25.882354%,25.882354%,25.882354%);stop-opacity:1;"/>
</linearGradient>
</defs>
<g id="surface1">
<path style=" stroke:none;fill-rule:nonzero;fill:url(#radial0);" d="M 25.800781 42.050781 L 29.769531 42.050781 L 29.769531 40.066406 L 25.800781 40.066406 Z M 25.800781 42.050781 "/>
<path style=" stroke:none;fill-rule:nonzero;fill:url(#radial1);" d="M 21.832031 42.050781 L 17.859375 42.050781 L 17.859375 44.035156 L 21.832031 44.035156 Z M 21.832031 42.050781 "/>
<path style=" stroke:none;fill-rule:nonzero;fill:url(#radial2);" d="M 21.832031 42.050781 L 17.859375 42.050781 L 17.859375 40.066406 L 21.832031 40.066406 Z M 21.832031 42.050781 "/>
<path style=" stroke:none;fill-rule:nonzero;fill:url(#radial3);" d="M 25.800781 42.050781 L 29.769531 42.050781 L 29.769531 44.035156 L 25.800781 44.035156 Z M 25.800781 42.050781 "/>
<path style=" stroke:none;fill-rule:nonzero;fill:url(#linear0);" d="M 21.832031 41.554688 L 25.800781 41.554688 L 25.800781 44.035156 L 21.832031 44.035156 Z M 21.832031 41.554688 "/>
<path style=" stroke:none;fill-rule:nonzero;fill:url(#linear1);" d="M 23.769531 4.539062 C 23.625 4.539062 23.484375 4.539062 23.34375 4.542969 C 21.257812 4.597656 19.183594 5.019531 17.207031 5.773438 L 30.058594 18.621094 L 30.058594 5.636719 C 28.027344 4.910156 25.898438 4.535156 23.769531 4.539062 Z M 31.464844 6.203125 L 31.464844 24.375 L 40.648438 15.191406 C 38.757812 11.207031 35.496094 8.015625 31.464844 6.203125 Z M 15.800781 6.355469 C 11.8125 8.25 8.609375 11.511719 6.796875 15.546875 L 24.996094 15.546875 Z M 41.242188 16.589844 L 28.390625 29.441406 L 41.378906 29.441406 C 42.859375 25.285156 42.8125 20.722656 41.242188 16.589844 Z M 6.253906 16.953125 C 4.769531 21.113281 4.820312 25.671875 6.390625 29.804688 L 19.238281 16.953125 Z M 22.636719 30.847656 L 31.820312 40.03125 C 35.808594 38.140625 38.996094 34.878906 40.808594 30.847656 Z M 22.636719 30.847656 "/>
<path style=" stroke:none;fill-rule:nonzero;fill:url(#linear2);" d="M 16.164062 22.019531 L 6.980469 31.203125 C 8.871094 35.191406 12.132812 38.378906 16.164062 40.191406 Z M 17.570312 27.773438 L 17.570312 40.761719 C 21.730469 42.242188 26.289062 42.195312 30.421875 40.625 Z M 17.570312 27.773438 "/>
<path style=" stroke:none;fill-rule:nonzero;fill:rgb(100%,100%,100%);fill-opacity:0.392157;" d="M 23.769531 4.539062 C 23.625 4.539062 23.484375 4.539062 23.34375 4.542969 C 21.257812 4.597656 19.183594 5.019531 17.207031 5.773438 L 17.609375 6.175781 C 19.464844 5.515625 21.398438 5.144531 23.34375 5.09375 C 23.484375 5.089844 23.625 5.089844 23.769531 5.089844 C 25.898438 5.085938 28.027344 5.460938 30.058594 6.183594 L 30.058594 5.636719 C 28.027344 4.910156 25.898438 4.535156 23.769531 4.539062 Z M 31.464844 6.203125 L 31.464844 6.753906 C 35.371094 8.507812 38.554688 11.558594 40.46875 15.375 L 40.648438 15.191406 C 38.757812 11.207031 35.496094 8.015625 31.464844 6.203125 Z M 15.800781 6.355469 C 11.8125 8.25 8.609375 11.511719 6.796875 15.546875 L 7.054688 15.546875 C 8.902344 11.765625 11.996094 8.710938 15.800781 6.90625 L 24.445312 15.546875 L 24.996094 15.546875 Z M 41.242188 16.589844 L 28.390625 29.441406 L 28.941406 29.441406 L 41.242188 17.140625 C 42.015625 19.183594 42.421875 21.328125 42.453125 23.480469 C 42.488281 21.144531 42.082031 18.804688 41.242188 16.589844 Z M 6.253906 16.953125 C 5.503906 19.058594 5.144531 21.261719 5.175781 23.464844 C 5.207031 21.445312 5.566406 19.433594 6.253906 17.503906 L 18.691406 17.503906 L 19.238281 16.953125 Z M 16.164062 22.019531 L 6.980469 31.203125 C 7.039062 31.324219 7.101562 31.449219 7.164062 31.570312 L 16.164062 22.566406 Z M 17.570312 27.773438 L 17.570312 28.324219 L 30.019531 40.769531 C 30.15625 40.722656 30.289062 40.675781 30.421875 40.625 Z M 22.636719 30.847656 L 23.183594 31.398438 L 40.550781 31.398438 C 40.640625 31.214844 40.726562 31.03125 40.808594 30.847656 Z M 22.636719 30.847656 "/>
<path style=" stroke:none;fill-rule:nonzero;fill:rgb(0%,0%,0%);fill-opacity:0.235294;" d="M 17.613281 5.621094 C 17.476562 5.671875 17.34375 5.71875 17.207031 5.773438 L 30.058594 18.621094 L 30.058594 18.066406 Z M 40.464844 14.820312 L 31.464844 23.820312 L 31.464844 24.375 L 40.648438 15.191406 C 40.589844 15.066406 40.527344 14.941406 40.464844 14.820312 Z M 7.058594 14.992188 C 6.96875 15.175781 6.882812 15.359375 6.796875 15.546875 L 24.996094 15.546875 L 24.4375 14.992188 Z M 18.683594 16.953125 L 6.390625 29.25 C 5.613281 27.207031 5.210938 25.0625 5.175781 22.910156 C 5.140625 25.246094 5.546875 27.589844 6.390625 29.804688 L 19.238281 16.953125 Z M 42.453125 22.925781 C 42.421875 24.945312 42.0625 26.957031 41.378906 28.882812 L 28.945312 28.882812 L 28.390625 29.441406 L 41.378906 29.441406 C 42.128906 27.335938 42.484375 25.128906 42.453125 22.925781 Z M 22.636719 30.847656 L 31.820312 40.03125 C 35.808594 38.140625 38.996094 34.878906 40.808594 30.847656 L 40.546875 30.847656 C 38.699219 34.621094 35.621094 37.671875 31.820312 39.472656 L 23.191406 30.847656 Z M 7.164062 31.019531 L 6.980469 31.203125 C 8.871094 35.191406 12.132812 38.378906 16.164062 40.191406 L 16.164062 39.636719 C 12.257812 37.878906 9.078125 34.832031 7.164062 31.019531 Z M 17.570312 40.203125 L 17.570312 40.761719 C 21.730469 42.242188 26.289062 42.195312 30.421875 40.625 L 30.015625 40.214844 C 25.992188 41.636719 21.59375 41.636719 17.570312 40.203125 Z M 17.570312 40.203125 "/>
<path style=" stroke:none;fill-rule:nonzero;fill:rgb(12.941177%,12.941177%,12.941177%);fill-opacity:1;" d="M 23.769531 4.398438 C 23.625 4.398438 23.480469 4.398438 23.339844 4.402344 C 21.238281 4.457031 19.148438 4.882812 17.15625 5.640625 C 17.113281 5.65625 17.078125 5.695312 17.070312 5.742188 C 17.058594 5.789062 17.074219 5.835938 17.109375 5.871094 L 29.957031 18.722656 C 30 18.761719 30.058594 18.773438 30.113281 18.753906 C 30.164062 18.730469 30.199219 18.679688 30.199219 18.621094 L 30.199219 5.636719 C 30.199219 5.574219 30.160156 5.523438 30.105469 5.503906 C 28.058594 4.773438 25.914062 4.394531 23.769531 4.398438 Z M 23.769531 4.679688 C 25.847656 4.675781 27.929688 5.039062 29.917969 5.738281 L 29.917969 18.28125 L 17.464844 5.828125 C 19.363281 5.132812 21.347656 4.734375 23.347656 4.683594 C 23.488281 4.679688 23.628906 4.679688 23.769531 4.679688 Z M 31.46875 6.0625 C 31.429688 6.0625 31.394531 6.078125 31.367188 6.101562 C 31.339844 6.128906 31.324219 6.164062 31.324219 6.203125 L 31.324219 24.378906 C 31.324219 24.433594 31.359375 24.484375 31.410156 24.507812 C 31.460938 24.527344 31.523438 24.515625 31.5625 24.476562 L 40.746094 15.292969 C 40.789062 15.25 40.800781 15.1875 40.773438 15.132812 C 38.871094 11.113281 35.585938 7.898438 31.523438 6.074219 C 31.503906 6.066406 31.484375 6.0625 31.46875 6.0625 Z M 15.800781 6.214844 C 15.78125 6.214844 15.757812 6.21875 15.742188 6.230469 C 11.722656 8.136719 8.492188 11.421875 6.671875 15.492188 C 6.652344 15.535156 6.65625 15.585938 6.679688 15.625 C 6.707031 15.664062 6.75 15.6875 6.796875 15.6875 L 24.996094 15.6875 C 25.050781 15.6875 25.101562 15.65625 25.125 15.601562 C 25.144531 15.550781 25.132812 15.488281 25.09375 15.449219 L 15.902344 6.257812 C 15.875 6.230469 15.835938 6.214844 15.800781 6.214844 Z M 31.605469 6.425781 C 35.484375 8.226562 38.625 11.316406 40.476562 15.164062 L 31.605469 24.039062 Z M 15.773438 6.527344 L 24.65625 15.40625 L 7.019531 15.40625 C 8.820312 11.523438 11.921875 8.378906 15.773438 6.527344 Z M 41.242188 16.449219 C 41.203125 16.449219 41.167969 16.464844 41.140625 16.492188 L 28.289062 29.339844 C 28.25 29.382812 28.238281 29.441406 28.261719 29.492188 C 28.28125 29.546875 28.332031 29.582031 28.390625 29.582031 L 41.378906 29.582031 C 41.4375 29.582031 41.488281 29.542969 41.511719 29.488281 C 43.003906 25.300781 42.953125 20.703125 41.371094 16.539062 C 41.351562 16.484375 41.300781 16.449219 41.242188 16.449219 Z M 6.253906 16.8125 C 6.191406 16.8125 6.140625 16.851562 6.121094 16.90625 C 4.625 21.097656 4.675781 25.691406 6.257812 29.855469 C 6.273438 29.898438 6.3125 29.933594 6.359375 29.941406 C 6.40625 29.953125 6.453125 29.9375 6.488281 29.90625 L 19.339844 17.054688 C 19.378906 17.015625 19.390625 16.953125 19.371094 16.902344 C 19.347656 16.847656 19.296875 16.8125 19.238281 16.8125 Z M 41.183594 16.847656 C 42.652344 20.863281 42.6875 25.269531 41.277344 29.300781 L 28.730469 29.300781 Z M 6.355469 17.09375 L 18.902344 17.09375 L 6.449219 29.546875 C 4.976562 25.53125 4.941406 21.125 6.355469 17.09375 Z M 16.160156 21.878906 C 16.125 21.878906 16.089844 21.894531 16.066406 21.917969 L 6.882812 31.101562 C 6.839844 31.144531 6.828125 31.207031 6.855469 31.261719 C 8.761719 35.28125 12.042969 38.496094 16.109375 40.320312 C 16.152344 40.339844 16.203125 40.335938 16.242188 40.308594 C 16.28125 40.285156 16.304688 40.238281 16.304688 40.191406 L 16.304688 22.019531 C 16.304688 21.980469 16.289062 21.945312 16.261719 21.917969 C 16.234375 21.890625 16.199219 21.875 16.160156 21.878906 Z M 16.023438 22.359375 L 16.023438 39.96875 C 12.144531 38.171875 9.003906 35.078125 7.152344 31.230469 Z M 17.570312 27.632812 C 17.492188 27.632812 17.429688 27.695312 17.429688 27.773438 L 17.429688 40.761719 C 17.429688 40.820312 17.46875 40.871094 17.523438 40.894531 C 21.714844 42.386719 26.308594 42.335938 30.472656 40.753906 C 30.515625 40.738281 30.550781 40.699219 30.558594 40.652344 C 30.570312 40.605469 30.554688 40.558594 30.523438 40.523438 L 17.671875 27.671875 C 17.644531 27.644531 17.609375 27.632812 17.570312 27.632812 Z M 17.710938 28.113281 L 30.164062 40.566406 C 26.148438 42.035156 21.742188 42.070312 17.710938 40.660156 Z M 22.636719 30.707031 C 22.578125 30.707031 22.527344 30.742188 22.503906 30.792969 C 22.484375 30.84375 22.496094 30.90625 22.535156 30.945312 L 31.71875 40.128906 C 31.761719 40.171875 31.824219 40.183594 31.878906 40.15625 C 35.898438 38.253906 39.113281 34.96875 40.9375 30.90625 C 40.957031 30.859375 40.953125 30.808594 40.925781 30.769531 C 40.902344 30.730469 40.855469 30.707031 40.808594 30.707031 Z M 22.976562 30.988281 L 40.585938 30.988281 C 38.789062 34.867188 35.695312 38.007812 31.847656 39.859375 Z M 22.976562 30.988281 "/>
</g>
</svg>
